svg/300/48/rounded/priority-fill.svg

<svg xmlns="http://www.w3.org/2000/svg" height="48" viewBox="0 -960 960 960" width="48"><path d="M353.31-140Q264-140 202-202t-62-151.31v-253.38Q140-696 202-758t151.31-62h253.38Q696-820 758-758t62 151.31v253.38Q820-264 758-202t-151.31 62H353.31Zm86.07-262.92-78.69-78.69q-6.69-6.7-16.11-6.39-9.43.31-16.5 7.39-7.08 7.07-7.08 16.3t7.08 16.31l91.07 90.46q8.62 8.62 20.04 8.62 11.43 0 20.43-8.62l189.92-190.31q6.69-6.69 6.88-16.11.19-9.42-6.88-16.5-7.08-7.08-16.31-7.08-9.23 0-16.31 7.08L439.38-402.92Z"/></svg>

<svg xmlns="http://www.w3.org/2000/svg" height="48" viewBox="0 -960 960 960" width="48"><path d="M353.31-140q-89.44 0-151.37-61.94Q140-263.87 140-353.31v-253.38q0-89.44 61.94-151.37Q263.87-820 353.31-820h253.38q89.44 0 151.37 61.94Q820-696.13 820-606.69v253.38q0 89.44-61.94 151.37Q696.13-140 606.69-140H353.31Zm86.07-197.69 226.16-226.16-32.62-32.61-193.54 193.54-94.69-94.31-32.61 32.61 127.3 126.93Z"/></svg>
